www/assets/icons/nature_people.svg

<svg width="24" height="24" viewBox="0 0 24 24" xmlns="http://www.w3.org/2000/svg" fill='currentColor'><path d="M22.085 9.08496C22.085 5.21496 18.955 2.08496 15.085 2.08496C11.215 2.08496 8.08498 5.21496 8.08498 9.08496C8.08498 12.555 10.605 15.425 13.915 15.975V19.915H5.91498V16.915H6.91498V12.915C6.91498 12.365 6.46498 11.915 5.91498 11.915H2.91498C2.36498 11.915 1.91498 12.365 1.91498 12.915V16.915H2.91498V21.915H18.915V19.915H15.915V16.035C19.385 15.625 22.085 12.675 22.085 9.08496ZM4.41498 10.915C5.24498 10.915 5.91498 10.245 5.91498 9.41496C5.91498 8.58496 5.24498 7.91496 4.41498 7.91496C3.58498 7.91496 2.91498 8.58496 2.91498 9.41496C2.91498 10.245 3.58498 10.915 4.41498 10.915Z"/></svg>

<svg xmlns="http://www.w3.org/2000/svg" width="24" height="24" viewBox="0 0 24 24" fill='currentColor'><path d="M22.085 9.085c0-3.87-3.13-7-7-7s-7 3.13-7 7a6.98 6.98 0 0 0 5.83 6.89v3.94h-8v-3h1v-4c0-.55-.45-1-1-1h-3c-.55 0-1 .45-1 1v4h1v5h16v-2h-3v-3.88a7 7 0 0 0 6.17-6.95m-17.67 1.83c.83 0 1.5-.67 1.5-1.5s-.67-1.5-1.5-1.5-1.5.67-1.5 1.5.67 1.5 1.5 1.5"/></svg>
